X:160
T: Stick the Minister
S: "Roche Collection of Traditional Irish Music" [I/75/197]
L: 1/8
M: 4/4
R: reel
K: D
Adde f2 ed | f2 fa ge e2 | Adde f2 ef | gfed cA A2 :|
a2 af g2 fg | a2 af ge e2 | a2 af g2 ef | gfed cA A2 |
a2 af g2 fg | a2 af geea | gfef gfed | cdAG FD D2 |]
